docs/styles/img/header/percent.svg

<svg width="12" height="9" viewBox="0 0 12 9" fill="none" xmlns="http://www.w3.org/2000/svg">
<path d="M4.40221 9L8.52597 0.341002L7.65083 0L3.52707 8.659L4.40221 9ZM2.63867 4.85927C4.21657 4.85927 5.27735 3.77537 5.27735 2.4479C5.27735 1.023 4.08398 0.0608937 2.63867 0.0608937C1.06077 0.0608937 0 1.13261 0 2.4479C0 3.89716 1.18011 4.85927 2.63867 4.85927ZM2.63867 4.07984C1.69724 4.07984 0.941436 3.43437 0.941436 2.46008C0.941436 1.57104 1.61768 0.852504 2.63867 0.852504C3.60663 0.852504 4.36243 1.49797 4.36243 2.46008C4.36243 3.3613 3.68619 4.07984 2.63867 4.07984ZM9.34807 8.86604C10.9392 8.86604 12 7.79432 12 6.46685C12 5.02977 10.8066 4.07984 9.34807 4.07984C7.77016 4.07984 6.70939 5.15156 6.70939 6.46685C6.70939 7.90392 7.90276 8.86604 9.34807 8.86604ZM9.36133 8.09878C8.40663 8.09878 7.63757 7.44114 7.63757 6.47903C7.63757 5.58999 8.32707 4.87145 9.36133 4.87145C10.316 4.87145 11.0851 5.51691 11.0851 6.47903C11.0851 7.38024 10.3956 8.09878 9.36133 8.09878Z" fill="white"/>
</svg>

<svg width="12" height="9" fill="none" xmlns="http://www.w3.org/2000/svg"><path d="M4.402 9L8.526.341 7.651 0 3.527 8.659 4.402 9zM2.64 4.86c1.578 0 2.638-1.085 2.638-2.412C5.277 1.023 4.084.06 2.64.06 1.06.06 0 1.133 0 2.448c0 1.45 1.18 2.411 2.639 2.411zm0-.78c-.943 0-1.7-.646-1.7-1.62 0-.889.677-1.607 1.698-1.607.968 0 1.723.645 1.723 1.607 0 .901-.676 1.62-1.723 1.62zm6.71 4.786c1.59 0 2.651-1.072 2.651-2.4C12 5.03 10.807 4.08 9.348 4.08 7.77 4.08 6.71 5.152 6.71 6.467c0 1.437 1.194 2.399 2.64 2.399zm.012-.767c-.954 0-1.723-.658-1.723-1.62 0-.889.69-1.608 1.723-1.608.955 0 1.724.646 1.724 1.608 0 .901-.69 1.62-1.724 1.62z" fill="#fff"/></svg>
